X:59
T:Clog de Pariseau
C: Pariseau
I:Quebecois 
Q:1/4=204 
M:4/4
L:1/8
K:G
E2 FG EF FG |EE GA B4 |ef gf e3/4f/e3/4 B2 |ef gf e3/4f/e3/4 B2 |
E2 FG EF FG |EE GE B4 |ef gf e3/4f/e3/4 B2 |e2 B2 e4 :||
d2 ed BG GG |gGGg f2 e2 |DE FG AB cd |ec ed BG GG |
dd ed BG G2 |gGGg fe ee |DE FG AB cA |Gg dB G4 :||
